X:180 
T:Rook on the Thatch* (reel), The  
B:CRE5.164 (gan ainm)
F:file ID: cre.5/180rook
B:CRE5.164 (gan ainm)
M:4/4
Q:180
R:reel
K:D
dFF2 BFAF|dFAF e2fe|dF~F2 BFAF|BcBA B2 (3ABc:|
defd cfec|defd fa~a2|dffd ceeA|BcBA Bcdc|
defd cfec|defd f2 a[ac']|bgaf gfed|BcBA B4|]

%%%

